build/images/3d.svg

<?xml version="1.0" encoding="UTF-8"?>
<svg width="33px" height="30px" viewBox="0 0 33 30" version="1.1" xmlns="http://www.w3.org/2000/svg" xmlns:xlink="http://www.w3.org/1999/xlink">
    <!-- Generator: sketchtool 63.1 (101010) - https://sketch.com -->
    <title>85057D9E-DA7E-49B2-BDC4-0816629C970E</title>
    <desc>Created with sketchtool.</desc>
    <g id="Page-1" stroke="none" stroke-width="1" fill="none" fill-rule="evenodd">
        <g id="Kupa-shop-main-1" transform="translate(-1100.000000, -164.000000)" fill="#333333" fill-rule="nonzero">
            <g id="header" transform="translate(0.000000, 20.000000)">
                <g id="3d" transform="translate(1100.144792, 144.000000)">
                    <path d="M22.0229167,21.3447286 C21.6773422,21.3447286 21.3972656,21.6207328 21.3972656,21.960745 C21.3972656,22.3007572 21.6773422,22.5767614 22.0229167,22.5767614 C22.3682467,22.5767614 22.6485677,22.3007572 22.6485677,21.960745 C22.6485677,21.6207328 22.3682467,21.3447286 22.0229167,21.3447286 Z" id="Path"></path>
                    <path d="M16.6423177,10.5030801 C16.6423177,10.1628272 16.3619967,9.88706366 16.0166667,9.88706366 C15.6713366,9.88706366 15.3910156,10.1628272 15.3910156,10.5030801 C15.3910156,10.8430923 15.6713366,11.1190965 16.0166667,11.1190965 C16.3619967,11.1190965 16.6423177,10.8430923 16.6423177,10.5030801 Z" id="Path"></path>
                    <path d="M10.0104167,22.5767614 C10.3557467,22.5767614 10.6360677,22.3007572 10.6360677,21.960745 C10.6360677,21.6207328 10.3557467,21.3447286 10.0104167,21.3447286 C9.66508663,21.3447286 9.38476562,21.6207328 9.38476562,21.960745 C9.38476562,22.3007572 9.66508663,22.5767614 10.0104167,22.5767614 Z" id="Path"></path>
                    <path d="M31.6616086,25.5040426 L28.2791827,24.0244 L28.2791827,10.5030801 C28.2791827,10.2590798 28.130835,10.0331269 27.8949939,9.93446803 L16.6423177,5.16924407 L16.6423177,0.646817248 C16.6423177,0.306564394 16.3619967,0.0308008214 16.0166667,0.0308008214 C15.6710922,0.0308008214 15.3910156,0.306564394 15.3910156,0.646817248 L15.3910156,5.16924407 L4.13833947,9.93446803 C3.91471809,10.025908 3.75415063,10.2489733 3.75415063,10.5030801 L3.75415063,24.0244 L0.371724685,25.5040426 C0.0559664252,25.6424057 -0.0862713975,26.0062404 0.0540112657,26.3171362 C0.193316412,26.6261069 0.561863978,26.769042 0.879821777,26.629957 L4.38371199,25.0971349 L15.7695834,29.9186666 C15.9201307,29.9824339 16.1041601,29.986284 16.2639943,29.9186666 L27.6496213,25.0971349 L31.1535116,26.629957 C31.4726913,26.7695232 31.8405057,26.6249038 31.9793221,26.3171362 C32.1196047,26.0062404 31.9773669,25.6424057 31.6616086,25.5040426 L31.6616086,25.5040426 Z M15.3910156,6.51052361 L15.3910156,8.03901437 C15.3910156,8.37902655 15.6710922,8.6550308 16.0166667,8.6550308 C16.3619967,8.6550308 16.6423177,8.37902655 16.6423177,8.03901437 L16.6423177,6.51052361 L26.0700968,10.5030801 L16.0166667,14.7605717 L5.96323649,10.5030801 L15.3910156,6.51052361 Z M8.2954974,22.711515 C8.1549703,22.4006192 7.78520077,22.2608124 7.46968689,22.3986942 L5.00520833,23.4769636 L5.00520833,11.4384144 L15.3910156,15.8366754 L15.3910156,28.4173672 L5.94148536,24.4156667 L7.97778398,23.5248492 C8.29354224,23.3864861 8.43578006,23.0224108 8.2954974,22.711515 Z M16.6423177,28.4173672 L16.6423177,15.8366754 L27.0278806,11.4384144 L27.0278806,23.4769636 L24.5636464,22.3989348 C24.2476438,22.2608124 23.8781187,22.4006192 23.7378359,22.7117556 C23.5975533,23.0226514 23.7397911,23.3864861 24.0555494,23.5248492 L26.091848,24.4156667 L16.6423177,28.4173672 Z" id="Shape"></path>
                </g>
            </g>
        </g>
    </g>
</svg>

<svg width="33" height="30" xmlns="http://www.w3.org/2000/svg"><g id="Page-1" stroke="none" stroke-width="1" fill="none" fill-rule="evenodd"><g id="Kupa-shop-main-1" transform="translate(-1100 -164)" fill="#333" fill-rule="nonzero"><g id="header" transform="translate(0 20)"><g id="3d" transform="translate(1100.145 144)"><path d="M22.023 21.345a.621.621 0 00-.626.616c0 .34.28.616.626.616a.621.621 0 00.626-.616c0-.34-.28-.616-.626-.616zm-5.381-10.842a.62.62 0 00-.625-.616.621.621 0 00-.626.616c0 .34.28.616.626.616a.621.621 0 00.625-.616zM10.01 22.577a.621.621 0 00.626-.616c0-.34-.28-.616-.626-.616a.621.621 0 00-.625.616c0 .34.28.616.625.616z" id="Path"/><path d="M31.662 25.504l-3.383-1.48v-13.52a.619.619 0 00-.384-.57L16.642 5.17V.647a.62.62 0 00-.625-.616.62.62 0 00-.626.616v4.522L4.138 9.934a.62.62 0 00-.384.57v13.52l-3.382 1.48a.612.612 0 00-.318.813.63.63 0 00.826.313l3.504-1.533L15.77 29.92a.65.65 0 00.494 0l11.386-4.822 3.504 1.533a.63.63 0 00.825-.313.612.612 0 00-.317-.813zM15.39 6.511v1.528c0 .34.28.616.626.616a.621.621 0 00.625-.616V6.511l9.428 3.992-10.053 4.258-10.054-4.258 9.428-3.992zm-7.096 16.2a.63.63 0 00-.825-.312l-2.465 1.078V11.438l10.386 4.399v12.58l-9.45-4.001 2.037-.891a.613.613 0 00.317-.813zm8.347 5.706v-12.58l10.386-4.399v12.039l-2.464-1.078a.63.63 0 00-.826.313c-.14.31.002.674.318.813l2.036.89-9.45 4.002z" id="Shape"/></g></g></g></g></svg>
